X: 272
T: Stevie's Boat (reel)
N: 192265
C: BB 1/09
M: 4/4
L: 1/8
Q: 350 
R: reel
K: A
D |"A"EAAB cBAG | "D" Fddc dcBA | "E"GB ~B2 "D"FAdc | "E" BAGF "E"E3D|
"A"EAAB cBAG | "D" FEFA "Bm"Bdef | "A"edcA "Bm" BF ~F2 | "E"EFGB "A"A3:|
A/B/|"A"c2 ec acec|"D" d2 ba "E"gfed|"A"c2 ec "Bm" dcde |"F#m"fecA "E"B3A/B/|
"A"c2 ec acec|"D" dcde "E"gfed|"A"cA ~A2 "Bm" FB ~B2 |"E7" edeg "A"a3 :|
%%%%%%%%%%%%%%%%%%%%%%%%%%%%%%%
